[A]
T3@0V15,5
L3O5R5A-1A-1A-A-FRE-
L3RFE-FA-7
L3O5R5A-1A-1A-A-FRE-
L3RFE-FO6C5O5B-A-
L3O5R5A-1A-1A-A-FRE-
L3RFE-FA-5B-A-
L3O6C7C7
L3C4O5B-4A-E-E-E5

[B]
T3@0V15,2
L3O2FO3FO2F1O3FO2F1O3FC1AO2F1O3F
L3O2A-O3A-O2A-1O3A-O2A-1O3A-E-1O4CO2A-1O3A-
L3O3D-O4D-O3D-1O4D-O3D-1O4D-O3A-1O4FO3D-1O4D-
L3O3E-O4E-O3E-1O4E-O3E-1O4E-O3B-1O4GO3E-1O4E-
L3O3FO4CO3F1O4CO3F1O4CO3F1O4FO3F1O4C
L3O2A-O3A-O2A-1O3A-O2A-1O3A-E-1O4CO2A-1O3A-
L3O3D-O4D-O3D-1O4D-O3D-1O4D-O3A-1O4FO3D-1O4D-
L3O3E-O4E-O3E-1O4E-O3E-1E-B-EB-

[C]
T3@0V15,2
L3O1FO3CO2F1O3CO2F1O3CC1F-O2F1O3C
L3O1A-O3E-O2A-1O3E-O2A-1O3E-E-1A-O2A-1O3E-
L3O2D-O3A-D-1A-D-1A-A-1O4D-O3D-1A-
L3O2E-O3B-E-1B-E-1B-B-1O4E-O3E-1B-
L3O2F-O3A-F1A-F1A-F1O4CO3F1A-
L3O1A-O3E-O2A-1O3E-O2A-1O3E-E-1A-O2A-1O3E-
L3O2D-O3A-O3D-1A-D-1A-A-1O4D-O3D-1A-
L3O2E-O3B-E-1B-E-1O2E-O3GO2EO3G
